X:455
T:The Marquis of Huntly's Highlanders
C:Traditional
S:Colin Hume's website,  colinhume.com  - chords can also be printed below the stave.
Q:1/4=120
M:C
L:1/8
K:A
P:A
f | "A"e>A c/B/A e>A c>A | "G"B<=GG>B d<GG>B | "A"e>A c/B/A e>A c>A | "Em"B>=G "G"E>d "A"c<AA>d |
"A"e>A c/B/A e>A c>A | "G"B<=GG>B d<GG>B | "A"e>A c/B/A e>A c>A | "Em"B>=G "G"E>d "A"c<AA> ||
P:B
B | "A"A<ag>a "D"f>a"A"e>d | "G"B<=gd>=c B<=GG>B | "A"A<ag>a e>A c>A | "D"f<a"E7"e>d "A"c<AA>B |
"A"A<ag>a "D"f>a"A"e>d | "G"B<=gd>=c B<=GG>B | "A"c>A e>A a>A e>A | "G"d>B =G>B "A"c<AA |]

